X: 41360
T: Turnpike, The
R: reel
M: 4/4
K: Gmajor
|:GABG ABGE|D3E GABd|gfgd (3efg dB|cABG AGEF
GABG ABGE|D3E GABd|gfgd (3efg dB|cAFA G4:|
D2 FD ADFD|G2BG dGBG|A2^cA eA^cA|df f2 af f2|
gfgd (3efg dB|cBAB cdef|gfgd (3efg dB|=cAFA G2 (3DEF||

